icons/evolvere-blue-folders-flat-vivid-dark-fallback/actions/64/tab-new.svg

<?xml version="1.0" encoding="UTF-8" standalone="no"?>
<!-- Created with Inkscape (http://www.inkscape.org/) -->

<svg
   xmlns:dc="http://purl.org/dc/elements/1.1/"
   xmlns:cc="http://creativecommons.org/ns#"
   xmlns:rdf="http://www.w3.org/1999/02/22-rdf-syntax-ns#"
   xmlns:svg="http://www.w3.org/2000/svg"
   xmlns="http://www.w3.org/2000/svg"
   xmlns:sodipodi="http://sodipodi.sourceforge.net/DTD/sodipodi-0.dtd"
   xmlns:inkscape="http://www.inkscape.org/namespaces/inkscape"
   width="64"
   height="64"
   id="svg13094"
   version="1.1"
   inkscape:version="0.48.4 r9939"
   sodipodi:docname="tab-new.svg">
  <sodipodi:namedview
     id="base"
     pagecolor="#ffffff"
     bordercolor="#666666"
     borderopacity="1.0"
     inkscape:pageopacity="0"
     inkscape:pageshadow="2"
     inkscape:zoom="11.313709"
     inkscape:cx="40.14468"
     inkscape:cy="31.048277"
     inkscape:document-units="px"
     inkscape:current-layer="svg13094"
     showgrid="false"
     inkscape:snap-bbox="true"
     inkscape:bbox-paths="true"
     inkscape:bbox-nodes="true"
     inkscape:snap-bbox-edge-midpoints="true"
     inkscape:snap-bbox-midpoints="true"
     inkscape:object-paths="true"
     inkscape:snap-intersection-paths="true"
     inkscape:object-nodes="true"
     inkscape:snap-smooth-nodes="true"
     inkscape:snap-midpoints="true"
     inkscape:snap-object-midpoints="true"
     inkscape:snap-center="true"
     showguides="false"
     inkscape:guide-bbox="true"
     inkscape:window-width="1920"
     inkscape:window-height="1022"
     inkscape:window-x="-5"
     inkscape:window-y="23"
     inkscape:window-maximized="1"
     inkscape:snap-global="false"
     fit-margin-top="0"
     fit-margin-left="0"
     fit-margin-right="0"
     fit-margin-bottom="0"
     showborder="true"
     inkscape:showpageshadow="false"
     inkscape:snap-page="true">
    <inkscape:grid
       type="xygrid"
       id="grid3075"
       empspacing="5"
       visible="true"
       enabled="true"
       snapvisiblegridlinesonly="true"
       originx="1.6362304e-08px"
       originy="18px" />
    <sodipodi:guide
       orientation="0,1"
       position="-11,30"
       id="guide9148" />
    <sodipodi:guide
       orientation="1,0"
       position="32,70"
       id="guide9150" />
  </sodipodi:namedview>
  <defs
     id="defs13096" />
  <metadata
     id="metadata13099">
    <rdf:RDF>
      <cc:Work
         rdf:about="">
        <dc:format>image/svg+xml</dc:format>
        <dc:type
           rdf:resource="http://purl.org/dc/dcmitype/StillImage" />
        <dc:title />
      </cc:Work>
    </rdf:RDF>
  </metadata>
  <path
     id="path6538"
     d="m 0,2 0,32 0,28 2,2 30,0 30,0 2,-2 0,-28 0,-32 -32,0 z"
     style="color:#000000;fill:#aeb4c3;fill-opacity:1;fill-rule:nonzero;stroke:none;stroke-width:2.28571415000000000;marker:none;visibility:visible;display:inline;overflow:visible;enable-background:accumulate"
     inkscape:connector-curvature="0"
     sodipodi:nodetypes="ccccccccccc" />
  <path
     style="color:#000000;fill:#a1b5c4;fill-opacity:1;fill-rule:nonzero;stroke:none;marker:none;visibility:visible;display:inline;overflow:visible;enable-background:accumulate"
     d="M 2,0 0,1 0,2 19.5625,2 39.125,2 64,2 64,1 62,0 39.125,0 19.5625,0 z"
     id="path6688"
     inkscape:connector-curvature="0"
     sodipodi:nodetypes="ccccccccccc" />
  <g
     id="g3043"
     inkscape:export-filename="folder.png"
     inkscape:export-xdpi="90"
     inkscape:export-ydpi="90"
     transform="translate(-0.62500009,0.082283)" />
  <g
     id="scalable"
     transform="matrix(1.0385892,0,0,1.0385892,1214.7222,1878.8121)"
     inkscape:label="#g3701"
     style="fill:#ffffff" />
  <path
     style="color:#000000;fill:#253b59;fill-opacity:0.39981949;fill-rule:nonzero;stroke:none;stroke-width:1.20000005000000010;marker:none;visibility:visible;display:inline;overflow:visible;enable-background:accumulate"
     d="M 1.6362304e-8,40 21.96875,40 c 2.204433,0 3.625,-1.875 4.03125,-3 l 8,-23 c 0.497693,-1.267847 1.764501,-2 3,-2 L 64,12 64,2 1.6362304e-8,2 z"
     id="path3023"
     inkscape:connector-curvature="0"
     sodipodi:nodetypes="ccccccccc" />
  <g
     id="g3074">
    <path
       style="color:#000000;fill:#00294a;fill-opacity:0.10379061;fill-rule:nonzero;stroke:none;stroke-width:2.28571415000000000;marker:none;visibility:visible;display:inline;overflow:visible;enable-background:accumulate"
       d="M 37 11 C 35.369436 11 33.723248 11.941778 33.0625 13.625 A 1.0000999 1.0000999 0 0 0 33.0625 13.65625 L 25.0625 36.65625 C 24.925565 37.035456 24.543045 37.70191 24 38.1875 C 23.456955 38.67309 22.787447 39 21.96875 39 L 0 39 L 0 39.46875 L 0 40 L 21.96875 40 C 22.240899 40 22.504064 39.960531 22.75 39.90625 C 22.967656 39.859813 23.176795 39.798291 23.375 39.71875 C 23.406074 39.706296 23.438158 39.700664 23.46875 39.6875 C 23.636135 39.615501 23.784885 39.528505 23.9375 39.4375 C 23.989182 39.406834 24.043776 39.376248 24.09375 39.34375 C 24.22228 39.259603 24.351802 39.188221 24.46875 39.09375 C 24.533542 39.042209 24.595012 38.991529 24.65625 38.9375 C 24.744091 38.858953 24.82594 38.770017 24.90625 38.6875 C 24.985339 38.607265 25.053238 38.520253 25.125 38.4375 C 25.180311 38.37323 25.230376 38.31508 25.28125 38.25 C 25.362842 38.146898 25.429864 38.040774 25.5 37.9375 C 25.529672 37.893407 25.56617 37.856295 25.59375 37.8125 C 25.677594 37.680858 25.748106 37.563247 25.8125 37.4375 C 25.819571 37.423799 25.836908 37.41985 25.84375 37.40625 C 25.912375 37.268994 25.955566 37.123047 26 37 L 34 14 C 34.070921 13.819332 34.150159 13.658344 34.25 13.5 C 34.298307 13.423587 34.350575 13.351086 34.40625 13.28125 C 34.414896 13.26988 34.428709 13.26123 34.4375 13.25 C 34.460353 13.220805 34.476237 13.185003 34.5 13.15625 C 34.604028 13.032785 34.723504 12.917306 34.84375 12.8125 C 34.963996 12.707694 35.085412 12.61663 35.21875 12.53125 C 35.477762 12.365397 35.771446 12.213288 36.0625 12.125 C 36.213212 12.079939 36.376969 12.054374 36.53125 12.03125 C 36.685102 12.008754 36.845563 12 37 12 L 64 12 L 64 11.46875 L 64 11 L 37 11 z "
       id="path3846" />
  </g>
  <path
     style="fill:#b0c1ce;fill-opacity:1;fill-rule:nonzero"
     d="M 0,1 0,4 2,2 z"
     id="path4298"
     inkscape:connector-curvature="0"
     sodipodi:nodetypes="cccc" />
  <path
     d="M 64,4 62,2 64,1 z"
     id="path3028"
     style="fill:#8a9aac;fill-opacity:1"
     inkscape:connector-curvature="0"
     sodipodi:nodetypes="cccc" />
  <g
     transform="translate(37,1)"
     id="g3053">
    <path
       inkscape:connector-curvature="0"
       id="path3883"
       d="M 22.25,42.75 C 23.955463,44.687682 25,47.215786 25,50 25,56.075128 20.075132,61 14,61 11.215784,61 8.6876817,59.955463 6.75,58.25 8.7658399,60.540321 11.709084,62 15,62 c 6.075132,0 11,-4.924872 11,-11 0,-3.290914 -1.459679,-6.234159 -3.75,-8.25 z"
       style="color:#000000;fill:#0b0e11;fill-opacity:0.0786219;fill-rule:nonzero;stroke:none;stroke-width:1;marker:none;visibility:visible;display:inline;overflow:visible;enable-background:accumulate" />
    <path
       style="color:#000000;fill:#ffffff;fill-opacity:1;fill-rule:nonzero;stroke:none;stroke-width:1;marker:none;visibility:visible;display:inline;overflow:visible;enable-background:accumulate"
       d="M 14,39 C 7.9248674,39 3,43.924872 3,50 3,56.075128 7.9248674,61 14,61 20.075132,61 25,56.075128 25,50 25,43.924872 20.075132,39 14,39 z"
       id="path3851"
       inkscape:connector-curvature="0" />
    <path
       inkscape:connector-curvature="0"
       style="color:#000000;fill:#8cb72e;fill-opacity:1;fill-rule:nonzero;stroke:none;stroke-width:1;marker:none;visibility:visible;display:inline;overflow:visible;enable-background:accumulate"
       d="m 14,41 c -4.970563,0 -9,4.02944 -9,9 0,4.97056 4.029437,9 9,9 4.970562,0 9,-4.02944 9,-9 0,-4.97056 -4.029438,-9 -9,-9 z"
       id="path3069" />
    <path
       inkscape:connector-curvature="0"
       style="color:#000000;fill:#ffffff;fill-opacity:1;fill-rule:nonzero;stroke:none;stroke-width:1;marker:none;visibility:visible;display:inline;overflow:visible;enable-background:accumulate"
       d="m 13,44 2,0 0,5 5,0 0,2 -5,0 0,5 -2,0 0,-5 -5,0 0,-2 5,0 0,-5 z"
       id="path3872" />
    <path
       inkscape:connector-curvature="0"
       id="path3054-1"
       d="m 15,45 0,4 1,0 0,-4 -1,0 z m 5,5 0,1 -5,0 0,5 -1,0 0,1 2,0 0,-5 5,0 0,-2 -1,0 z m -11,1 0,1 4,0 0,-1 -4,0 z"
       style="color:#000000;fill:#0b0e11;fill-opacity:0.0786219;fill-rule:nonzero;stroke:none;stroke-width:1;marker:none;visibility:visible;display:inline;overflow:visible;enable-background:accumulate" />
  </g>
</svg>

<svg xmlns="http://www.w3.org/2000/svg" viewBox="0 0 64 64"><g color="#000"><path d="m0 2v32 28l2 2h30 30l2-2v-28-32h-32z" fill="#aeb4c3"/><path d="m2 0l-2 1v1h19.563 19.563 24.875v-1l-2-1h-22.875-19.563z" fill="#a1b5c4"/><path d="m0 40h21.969c2.204 0 3.625-1.875 4.03-3l8-23c.498-1.268 1.765-2 3-2h27v-10h-64z" fill="#253b59" fill-opacity=".4"/><path d="m37 11c-1.631 0-3.277.942-3.938 2.625a1.0001 1.0001 0 0 0 0 .03125l-8 23c-.137.379-.519 1.046-1.063 1.531-.543.486-1.213.813-2.031.813h-21.969v.469.531h21.969c.272 0 .535-.039.781-.094.218-.046.427-.108.625-.188.031-.012.063-.018.094-.031.167-.072.316-.159.469-.25.052-.031.106-.061.156-.094.129-.084.258-.156.375-.25.065-.052.126-.102.188-.156.088-.079.17-.167.25-.25.079-.08.147-.167.219-.25.055-.064.105-.122.156-.188.082-.103.149-.209.219-.313.03-.044.066-.081.094-.125.084-.132.154-.249.219-.375.007-.014.024-.018.031-.031.069-.137.112-.283.156-.406l8-23c.071-.181.15-.342.25-.5.048-.076.101-.149.156-.219.009-.011.022-.02.031-.031.023-.029.039-.065.063-.094.104-.123.224-.239.344-.344.12-.105.242-.196.375-.281.259-.166.553-.318.844-.406.151-.045.314-.071.469-.094.154-.022.314-.031.469-.031h27v-.531-.469h-27" fill="#00294a" fill-opacity=".104"/></g><path d="m0 1v3l2-2z" fill="#b0c1ce"/><path d="m64 4l-2-2 2-1z" fill="#8a9aac"/><g transform="translate(37 1)" color="#000"><path d="m22.25 42.75c1.705 1.938 2.75 4.466 2.75 7.25 0 6.075-4.925 11-11 11-2.784 0-5.312-1.045-7.25-2.75 2.02 2.29 4.959 3.75 8.25 3.75 6.075 0 11-4.925 11-11 0-3.291-1.46-6.234-3.75-8.25" fill="#0b0e11" fill-opacity=".079"/><path d="m14 39c-6.075 0-11 4.925-11 11 0 6.075 4.925 11 11 11 6.075 0 11-4.925 11-11 0-6.075-4.925-11-11-11" fill="#fff"/><path d="m14 41c-4.971 0-9 4.03-9 9 0 4.971 4.03 9 9 9 4.971 0 9-4.03 9-9 0-4.971-4.03-9-9-9" fill="#8cb72e"/><path d="m13 44h2v5h5v2h-5v5h-2v-5h-5v-2h5v-5" fill="#fff"/><path d="m15 45v4h1v-4h-1m5 5v1h-5v5h-1v1h2v-5h5v-2h-1m-11 1v1h4v-1h-4" fill="#0b0e11" fill-opacity=".079"/></g></svg>
